src/assets/img/providers/platipus-g.svg

<svg width="92" height="32" viewBox="0 0 92 32" fill="none" xmlns="http://www.w3.org/2000/svg">
<g clip-path="url(#clip0_4052_7765)">
<path fill-rule="evenodd" clip-rule="evenodd" d="M91.3585 29.8472V0.164152L90.9389 0.161133C90.917 0.161115 90.8953 0.165671 90.8753 0.174509C90.8553 0.183347 90.8374 0.196272 90.8226 0.212454L86.074 5.32491C86.0611 5.33913 86.0455 5.35051 86.0281 5.35831C86.0107 5.36611 85.9918 5.37016 85.9728 5.37019C58.642 5.38629 31.3006 5.38528 3.94868 5.36717C3.00579 5.36717 2.35421 5.44516 1.99396 5.60113C1.2956 5.90403 0.84478 6.50428 0.64151 7.40189V29.8276C0.953963 31.2721 1.93359 31.8668 3.32679 31.8653C31.7917 31.8431 60.2486 31.8411 88.6974 31.8592C89.2226 31.8603 89.6574 31.7843 90.0015 31.6313C90.7069 31.3174 91.1592 30.7226 91.3585 29.8472ZM49.6645 9.79472C49.6744 9.80463 49.68 9.81806 49.68 9.83208V12.6487C49.68 12.6627 49.6744 12.6761 49.6645 12.686C49.6546 12.6959 49.6412 12.7015 49.6272 12.7015H46.3487C46.3347 12.7015 46.3212 12.6959 46.3113 12.686C46.3014 12.6761 46.2958 12.6627 46.2958 12.6487V9.83208C46.2958 9.81806 46.3014 9.80463 46.3113 9.79472C46.3212 9.78481 46.3347 9.77925 46.3487 9.77925H49.6272C49.6412 9.77925 49.6546 9.78481 49.6645 9.79472ZM23.0093 10.3549C23.0183 10.364 23.0234 10.3762 23.0234 10.3891V23.8743C23.0234 23.8872 23.0183 23.8994 23.0093 23.9085C23.0002 23.9176 22.9879 23.9226 22.9751 23.9226H19.6392C19.6264 23.9226 19.6142 23.9176 19.6051 23.9085C19.596 23.8994 19.5909 23.8872 19.5909 23.8743V10.3891C19.5909 10.3762 19.596 10.364 19.6051 10.3549C19.6142 10.3458 19.6264 10.3408 19.6392 10.3408H22.9751C22.9879 10.3408 23.0002 10.3458 23.0093 10.3549ZM13.0113 20.3528C12.5213 20.3438 12.0322 20.3413 11.5442 20.3453C11.4747 20.3453 11.44 20.38 11.44 20.4494L11.437 23.823C11.437 23.8824 11.4073 23.9121 11.3479 23.9121L7.93359 23.9257C7.92467 23.9257 7.91583 23.9239 7.90759 23.9206C7.89935 23.9173 7.89186 23.9124 7.88556 23.9062C7.87925 23.9 7.87424 23.8927 7.87083 23.8847C7.86742 23.8766 7.86566 23.868 7.86566 23.8592L7.86717 11.0396C7.86716 11.0259 7.87252 11.0127 7.88211 11.0028C7.89169 10.9929 7.90474 10.9872 7.91849 10.9868C9.79019 10.9808 11.5899 10.9813 13.3177 10.9883C15.6966 10.9989 17.6287 12.3845 18.0694 14.7513C18.2958 15.9679 18.0619 17.3174 17.363 18.3332C16.3502 19.8049 14.7713 20.3891 13.0113 20.3528ZM38.7457 19.3098C38.7668 18.4021 38.7673 17.5307 38.7472 16.6955C38.7462 16.6311 38.7135 16.5989 38.6491 16.5989L37.0143 16.6004C36.964 16.6004 36.9389 16.5752 36.9389 16.5249L36.9358 15.8562C36.9358 15.8077 36.9547 15.7607 36.9887 15.7249L41.3389 11.0894C41.3801 11.0452 41.4304 11.023 41.4898 11.023L42.0211 11.0245C42.0456 11.0245 42.069 11.0342 42.0862 11.0515C42.1035 11.0688 42.1132 11.0922 42.1132 11.1166V13.8532C42.1132 13.9055 42.1394 13.9317 42.1917 13.9317H44.5147C44.5781 13.9317 44.6098 13.9629 44.6098 14.0253L44.6083 16.5249C44.6083 16.5742 44.5831 16.5989 44.5328 16.5989H42.2913C42.2249 16.5989 42.1917 16.6321 42.1917 16.6985C42.1937 17.6655 42.1942 18.6447 42.1932 19.6359C42.1919 20.9906 43.2419 20.9481 44.1888 20.9098L44.1889 20.9098C44.3255 20.9043 44.4599 20.8989 44.5887 20.8977C44.646 20.8967 44.6747 20.9244 44.6747 20.9808L44.6732 23.8185C44.6732 23.8799 44.6425 23.9111 44.5811 23.9121C44.3839 23.9152 44.1841 23.9205 43.9833 23.9258C41.9185 23.981 39.7368 24.0392 38.9555 21.6842C38.7904 21.1891 38.7205 20.3976 38.7457 19.3098ZM25.4038 15.98C26.963 13.494 30.4619 12.866 32.797 14.6275C32.8533 14.6708 32.8956 14.6603 32.9238 14.5959L33.1909 14.0026C33.2141 13.9513 33.2538 13.9257 33.3102 13.9257H35.6891C35.7585 13.9257 35.7932 13.9604 35.7932 14.0298L35.7947 23.8502C35.7947 23.8654 35.7885 23.88 35.7775 23.8908C35.7664 23.9015 35.7515 23.9076 35.7359 23.9076H33.197C33.1507 23.9076 33.1185 23.8854 33.1004 23.8411L32.8876 23.3038C32.8594 23.2323 32.8146 23.2203 32.7532 23.2675C31.0928 24.546 28.6325 24.5325 26.9087 23.414C25.7263 22.6462 24.9932 21.5146 24.7094 20.0192C24.4558 18.6804 24.6762 17.1392 25.4038 15.98ZM58.8574 24.1249C57.6116 24.4037 56.4418 24.2457 55.3479 23.6509C55.2835 23.6157 55.2513 23.6348 55.2513 23.7083V27.4321C55.2513 27.4844 55.2252 27.5106 55.1728 27.5106H51.9245C51.8742 27.5106 51.8491 27.4854 51.8491 27.4351V14.0238C51.8491 13.9994 51.8586 13.9759 51.8756 13.9587C51.8926 13.9414 51.9156 13.9317 51.9396 13.9317H54.1117C54.163 13.9317 54.2008 13.9538 54.2249 13.9981L54.5706 14.6381C54.6028 14.6985 54.6455 14.707 54.6989 14.6638C55.6367 13.903 56.7351 13.5574 57.994 13.6268C60.4408 13.7596 62.3125 15.3189 62.7789 17.734C63.3494 20.6909 61.8943 23.4442 58.8574 24.1249ZM78.9464 20.7211C79.0143 22.057 81.1623 21.9604 81.0521 20.8751C81.0098 20.46 80.4996 20.2774 80.154 20.2034C79.9511 20.1602 79.7433 20.1198 79.5339 20.0791C77.736 19.7295 75.812 19.3554 75.766 17.0004C75.7268 15.0517 77.2045 13.9498 79.0053 13.6902C81.2725 13.3642 84.1449 14.1475 84.2385 16.9355C84.2395 16.9717 84.2214 16.9898 84.1842 16.9898L81.0989 16.9868C81.0415 16.9868 81.0113 16.9581 81.0083 16.9008C80.9494 15.74 78.9509 15.814 79.0717 16.8585C79.1295 17.3528 79.8757 17.4909 80.7936 17.6607C82.2948 17.9386 84.2555 18.3014 84.4166 20.4464C84.5721 22.5128 83.1759 23.7898 81.2483 24.1294C78.7638 24.5672 75.7781 23.746 75.6242 20.7272C75.6211 20.6708 75.6483 20.6426 75.7057 20.6426H78.8634C78.9157 20.6426 78.9434 20.6688 78.9464 20.7211ZM49.6802 13.9481C49.6907 13.9585 49.6966 13.9727 49.6966 13.9875V23.8653C49.6966 23.8801 49.6907 23.8943 49.6802 23.9048C49.6698 23.9153 49.6556 23.9211 49.6408 23.9211H46.32C46.3052 23.9211 46.291 23.9153 46.2805 23.9048C46.27 23.8943 46.2642 23.8801 46.2642 23.8653V13.9875C46.2642 13.9727 46.27 13.9585 46.2805 13.9481C46.291 13.9376 46.3052 13.9317 46.32 13.9317H49.6408C49.6556 13.9317 49.6698 13.9376 49.6802 13.9481ZM67.7751 19.34C67.7761 19.5513 67.7942 19.7647 67.8294 19.98C67.9879 20.9294 68.88 21.3309 69.7781 21.0562C70.5162 20.8313 70.7245 20.0902 70.7215 19.3838C70.7145 17.4748 70.7135 15.6831 70.7185 14.0087C70.7185 13.9574 70.7441 13.9317 70.7955 13.9317H74.0709C74.1333 13.9317 74.1645 13.9634 74.1645 14.0268C74.1474 15.7274 74.1484 17.414 74.1675 19.0864C74.1766 19.9267 74.1062 20.5948 73.9562 21.0909C73.2106 23.5438 70.8468 24.4932 68.3909 24.1808C66.5766 23.9498 65.0959 22.9128 64.5494 21.1226C64.3914 20.6064 64.318 19.894 64.3291 18.9853C64.3472 17.334 64.3487 15.6771 64.3336 14.0147C64.3336 13.9594 64.3613 13.9317 64.4166 13.9317H67.6936C67.7479 13.9317 67.7751 13.9589 67.7751 14.0132C67.7721 15.8426 67.7721 17.6182 67.7751 19.34ZM11.4634 14.1227C11.4503 14.1357 11.443 14.1533 11.443 14.1718L11.437 17.1604C11.437 17.1696 11.4388 17.1786 11.4423 17.187C11.4458 17.1954 11.4509 17.2031 11.4573 17.2095C11.4638 17.216 11.4714 17.2211 11.4798 17.2246C11.4883 17.2281 11.4973 17.2299 11.5064 17.2299L12.9796 17.2329C13.1771 17.2333 13.3726 17.195 13.5552 17.1202C13.7377 17.0454 13.9037 16.9355 14.0436 16.7969C14.1835 16.6583 14.2945 16.4936 14.3705 16.3123C14.4464 16.1309 14.4856 15.9365 14.486 15.7401V15.6042C14.4868 15.2075 14.3292 14.8267 14.0478 14.5456C13.7665 14.2645 13.3844 14.1061 12.9857 14.1053L11.5125 14.1023C11.494 14.1023 11.4764 14.1096 11.4634 14.1227ZM54.9813 18.8992C54.9659 20.1629 55.9541 21.1996 57.1886 21.2147C58.4232 21.2297 59.4365 20.2175 59.4519 18.9538C59.4673 17.6901 58.4791 16.6535 57.2446 16.6384C56.01 16.6233 54.9967 17.6355 54.9813 18.8992ZM30.3063 21.2042C29.0708 21.2106 28.064 20.1968 28.0574 18.9397C28.0508 17.6826 29.047 16.6582 30.2824 16.6518C31.5178 16.6453 32.5247 17.6591 32.5313 18.9163C32.5379 20.1734 31.5417 21.1977 30.3063 21.2042Z" fill="#00AB55"/>
</g>
<defs>
<clipPath id="clip0_4052_7765">
<rect width="90.717" height="32" fill="white" transform="translate(0.64151 0.000976562)"/>
</clipPath>
</defs>
</svg>

<svg xmlns="http://www.w3.org/2000/svg" width="92" height="32" fill="none"><g clip-path="url(#a)"><path fill="#00AB55" fill-rule="evenodd" d="M91.359 29.847V.164l-.42-.003a.157.157 0 0 0-.116.051l-4.749 5.113a.138.138 0 0 1-.101.045c-27.331.016-54.672.015-82.024-.003-.943 0-1.595.078-1.955.234-.698.303-1.15.903-1.352 1.8v22.427c.312 1.444 1.292 2.039 2.685 2.037 28.465-.022 56.922-.024 85.37-.006.526.001.96-.075 1.304-.228.706-.314 1.158-.908 1.358-1.784ZM49.665 9.795c.01.01.015.023.015.037v2.817a.053.053 0 0 1-.053.053H46.35a.053.053 0 0 1-.053-.053V9.832a.053.053 0 0 1 .053-.053h3.278c.014 0 .028.006.037.016Zm-26.656.56c.01.009.014.021.014.034v13.485a.049.049 0 0 1-.048.049H19.64a.048.048 0 0 1-.048-.049V10.39a.048.048 0 0 1 .048-.048h3.336c.013 0 .025.005.034.014Zm-9.998 9.998c-.49-.01-.979-.012-1.467-.008-.07 0-.104.035-.104.104l-.003 3.374c0 .06-.03.09-.09.09l-3.413.013a.07.07 0 0 1-.048-.02.067.067 0 0 1-.02-.047l.001-12.82a.053.053 0 0 1 .051-.052c1.872-.006 3.672-.006 5.4.001 2.379.01 4.31 1.396 4.751 3.763.227 1.217-.007 2.566-.706 3.582-1.013 1.472-2.592 2.056-4.352 2.02Zm25.735-1.043c.02-.908.021-1.78.001-2.614 0-.065-.033-.097-.098-.097l-1.635.001c-.05 0-.075-.025-.075-.075l-.003-.669a.19.19 0 0 1 .053-.131l4.35-4.636a.199.199 0 0 1 .15-.066l.532.002a.092.092 0 0 1 .092.092v2.736c0 .053.026.079.079.079h2.323c.063 0 .095.03.095.093l-.002 2.5c0 .05-.025.074-.075.074H42.29c-.066 0-.1.033-.1.1.003.966.003 1.946.002 2.937-.001 1.355 1.049 1.312 1.996 1.274.136-.006.27-.011.4-.012.057-.001.086.026.086.083l-.002 2.837c0 .062-.03.093-.092.094-.197.003-.397.009-.598.014-2.064.055-4.246.113-5.027-2.242-.166-.495-.236-1.286-.21-2.374Zm-13.342-3.33c1.559-2.486 5.058-3.114 7.393-1.353.056.044.099.033.127-.031l.267-.593a.121.121 0 0 1 .12-.077h2.378c.07 0 .104.034.104.104l.002 9.82c0 .015-.007.03-.017.04a.06.06 0 0 1-.042.018h-2.539c-.046 0-.079-.023-.097-.067l-.212-.537c-.029-.072-.073-.084-.135-.037-1.66 1.279-4.12 1.265-5.844.147-1.183-.768-1.916-1.9-2.2-3.395-.253-1.339-.033-2.88.695-4.039Zm33.453 8.145c-1.245.279-2.415.12-3.51-.474-.064-.035-.096-.016-.096.057v3.724c0 .052-.026.079-.078.079h-3.248c-.05 0-.076-.026-.076-.076V14.024c0-.025.01-.048.027-.065a.09.09 0 0 1 .064-.027h2.172a.12.12 0 0 1 .113.066l.346.64c.032.06.075.069.128.026.938-.761 2.036-1.107 3.295-1.037 2.447.133 4.319 1.692 4.785 4.107.57 2.957-.885 5.71-3.922 6.39Zm20.09-3.404c.067 1.336 2.215 1.24 2.105.154-.042-.415-.552-.598-.898-.672-.203-.043-.41-.083-.62-.124-1.798-.35-3.722-.724-3.768-3.079-.04-1.948 1.438-3.05 3.24-3.31 2.266-.326 5.139.458 5.233 3.246 0 .036-.018.054-.055.054l-3.085-.003c-.058 0-.088-.029-.09-.086-.06-1.161-2.058-1.087-1.937-.043.057.495.804.633 1.722.803 1.5.278 3.462.64 3.623 2.785.155 2.067-1.241 3.344-3.169 3.683-2.484.438-5.47-.383-5.624-3.402-.003-.056.024-.084.082-.084h3.157c.053 0 .08.026.083.078ZM49.68 13.948c.01.01.017.025.017.04v9.877a.056.056 0 0 1-.056.056H46.32a.056.056 0 0 1-.056-.056v-9.877a.055.055 0 0 1 .056-.056h3.32c.016 0 .03.006.04.016Zm18.095 5.392c.001.211.02.425.054.64.159.95 1.051 1.35 1.95 1.076.737-.225.946-.966.943-1.672-.007-1.91-.008-3.7-.003-5.375 0-.052.025-.077.077-.077h3.275c.062 0 .094.031.094.095-.018 1.7-.017 3.387.002 5.06.01.84-.06 1.508-.21 2.004-.746 2.453-3.11 3.402-5.566 3.09-1.814-.231-3.295-1.268-3.842-3.058-.158-.517-.231-1.229-.22-2.138.018-1.651.02-3.308.005-4.97 0-.056.027-.083.083-.083h3.277c.054 0 .081.027.081.081-.003 1.83-.003 3.605 0 5.327Zm-56.312-5.217a.069.069 0 0 0-.02.049l-.006 2.988a.069.069 0 0 0 .043.065.07.07 0 0 0 .026.005l1.474.003a1.51 1.51 0 0 0 1.39-.92 1.49 1.49 0 0 0 .116-.573v-.136c0-.396-.157-.777-.438-1.058a1.507 1.507 0 0 0-1.062-.44l-1.474-.004a.069.069 0 0 0-.049.02Zm43.518 4.776c-.015 1.264.973 2.3 2.208 2.316 1.234.015 2.248-.997 2.263-2.261.015-1.264-.973-2.3-2.207-2.316-1.235-.015-2.248.997-2.264 2.261Zm-24.675 2.305c-1.235.007-2.242-1.007-2.249-2.264-.006-1.257.99-2.282 2.225-2.288 1.236-.007 2.243 1.007 2.25 2.264.006 1.257-.99 2.282-2.226 2.288Z" clip-rule="evenodd"/></g><defs><clipPath id="a"><path fill="#fff" d="M.642.001h90.717v32H.642z"/></clipPath></defs></svg>
